assets/images/counter/icon-04.svg

<svg width="44" height="52" viewBox="0 0 44 52" fill="none" xmlns="http://www.w3.org/2000/svg">
<path d="M21.6672 25.0487C25.1573 25.0487 28.179 23.8145 30.6487 21.3793C33.1176 18.9446 34.3698 15.9656 34.3698 12.5239C34.3698 9.08351 33.118 6.10407 30.6483 3.66855C28.1786 1.23422 25.1569 0 21.6672 0C18.1767 0 15.1554 1.23422 12.6861 3.66895C10.2168 6.10368 8.9646 9.08311 8.9646 12.5239C8.9646 15.9656 10.2168 18.945 12.6861 21.3797C15.1562 23.8141 18.1779 25.0487 21.6672 25.0487ZM14.8717 5.82359C16.7664 3.95539 18.9891 3.04728 21.6672 3.04728C24.3449 3.04728 26.568 3.95539 28.4631 5.82359C30.3578 7.69218 31.2792 9.88411 31.2792 12.5239C31.2792 15.1646 30.3578 17.3561 28.4631 19.2247C26.568 21.0933 24.3449 22.0014 21.6672 22.0014C18.9899 22.0014 16.7672 21.0929 14.8717 19.2247C12.9766 17.3565 12.0551 15.1646 12.0551 12.5239C12.0551 9.88411 12.9766 7.69218 14.8717 5.82359Z" fill="#FF3600"/>
<path d="M43.8934 39.9855C43.8222 38.9722 43.6781 37.8669 43.4661 36.6998C43.252 35.5239 42.9764 34.4122 42.6465 33.3962C42.3052 32.3461 41.8421 31.309 41.2688 30.3152C40.6745 29.2837 39.976 28.3855 39.1922 27.6464C38.3726 26.8732 37.3691 26.2515 36.2086 25.798C35.0522 25.347 33.7707 25.1184 32.3999 25.1184C31.8615 25.1184 31.3409 25.3362 30.3354 25.9817C29.7165 26.3796 28.9927 26.8398 28.1847 27.3489C27.4939 27.7829 26.558 28.1895 25.402 28.5577C24.2742 28.9175 23.129 29.1 21.9984 29.1C20.8686 29.1 19.7234 28.9175 18.5948 28.5577C17.44 28.1899 16.5037 27.7833 15.8141 27.3492C15.0138 26.845 14.2895 26.3848 13.6614 25.9813C12.6567 25.3358 12.1361 25.118 11.5977 25.118C10.2265 25.118 8.94533 25.347 7.78934 25.7984C6.62973 26.2511 5.62584 26.8728 4.80542 27.6468C4.02162 28.3863 3.32312 29.2841 2.72923 30.3152C2.15667 31.309 1.69314 32.3457 1.35194 33.3966C1.0224 34.4126 0.746786 35.5239 0.532729 36.6998C0.320281 37.8653 0.176637 38.971 0.105419 39.9867C0.0354079 40.9797 0 42.0131 0 43.0573C0 45.7718 0.875139 47.9692 2.60087 49.5899C4.30528 51.1891 6.56013 52 9.30303 52H34.697C37.4391 52 39.6939 51.1891 41.3987 49.5899C43.1249 47.9704 44 45.7722 44 43.0569C43.9996 42.0092 43.9638 40.9757 43.8934 39.9855ZM39.2678 47.3821C38.1416 48.439 36.6464 48.9527 34.6966 48.9527H9.30303C7.35278 48.9527 5.8576 48.439 4.73179 47.3825C3.6273 46.3458 3.09055 44.9307 3.09055 43.0573C3.09055 42.083 3.12314 41.1209 3.18832 40.1973C3.2519 39.2912 3.38186 38.2958 3.57459 37.2381C3.76491 36.1935 4.00713 35.2132 4.29522 34.3257C4.57165 33.4747 4.94866 32.6321 5.41621 31.8204C5.86243 31.0468 6.37584 30.383 6.94237 29.8482C7.47228 29.348 8.14021 28.9385 8.92723 28.6315C9.6551 28.3474 10.4731 28.1919 11.3611 28.1685C11.4694 28.2252 11.6621 28.3335 11.9743 28.5343C12.6097 28.9425 13.342 29.4083 14.1515 29.9181C15.0641 30.4917 16.2398 31.0099 17.6444 31.457C19.0805 31.9148 20.5451 32.1473 21.9988 32.1473C23.4525 32.1473 24.9175 31.9148 26.3528 31.4574C27.7586 31.0095 28.9339 30.4917 29.8477 29.9173C30.6762 29.3952 31.3879 28.9429 32.0233 28.5343C32.3355 28.3339 32.5282 28.2252 32.6365 28.1685C33.5249 28.1919 34.3429 28.3474 35.0712 28.6315C35.8578 28.9385 36.5257 29.3484 37.0556 29.8482C37.6221 30.3826 38.1356 31.0464 38.5818 31.8208C39.0497 32.6321 39.4271 33.4751 39.7032 34.3253C39.9917 35.214 40.2343 36.1939 40.4242 37.2377C40.6165 38.2974 40.7469 39.2932 40.8105 40.1977V40.1985C40.8761 41.1185 40.909 42.0802 40.9095 43.0573C40.909 44.9311 40.3723 46.3458 39.2678 47.3821Z" fill="#FF3600"/>
</svg>

<svg version="1.2" xmlns="http://www.w3.org/2000/svg" viewBox="0 0 44 52" width="44" height="52"><style>.a{fill:#c9b199}</style><path class="a" d="m21.7 25c3.5 0 6.5-1.2 8.9-3.6 2.5-2.5 3.8-5.4 3.8-8.9 0-3.4-1.3-6.4-3.8-8.8-2.4-2.5-5.4-3.7-8.9-3.7-3.5 0-6.5 1.2-9 3.7-2.5 2.4-3.7 5.4-3.7 8.8 0 3.5 1.2 6.4 3.7 8.9 2.5 2.4 5.5 3.6 9 3.6zm-6.8-19.2c1.9-1.8 4.1-2.8 6.8-2.8 2.6 0 4.9 1 6.8 2.8 1.9 1.9 2.8 4.1 2.8 6.7 0 2.7-0.9 4.9-2.8 6.7-1.9 1.9-4.2 2.8-6.8 2.8-2.7 0-4.9-0.9-6.8-2.8-1.9-1.8-2.8-4-2.8-6.7 0-2.6 0.9-4.8 2.8-6.7z"/><path class="a" d="m43.9 40q-0.1-1.5-0.4-3.3-0.4-1.8-0.9-3.3-0.5-1.6-1.3-3.1-0.9-1.5-2.1-2.7-1.2-1.1-3-1.8-1.7-0.7-3.8-0.7c-0.5 0-1.1 0.2-2.1 0.9q-0.9 0.6-2.1 1.3-1.1 0.7-2.8 1.3-1.7 0.5-3.4 0.5-1.7 0-3.4-0.5-1.7-0.6-2.8-1.3-1.2-0.7-2.1-1.3c-1-0.7-1.6-0.9-2.1-0.9q-2.1 0-3.8 0.7-1.8 0.7-3 1.8-1.2 1.2-2.1 2.7-0.8 1.5-1.3 3.1-0.5 1.5-0.9 3.3-0.3 1.8-0.4 3.3-0.1 1.5-0.1 3.1c0 2.7 0.9 4.9 2.6 6.5 1.7 1.6 4 2.4 6.7 2.4h25.4c2.7 0 5-0.8 6.7-2.4 1.7-1.6 2.6-3.8 2.6-6.5q0-1.6-0.1-3.1zm-4.6 7.4c-1.2 1-2.7 1.6-4.6 1.6h-25.4c-1.9 0-3.4-0.6-4.6-1.6-1.1-1.1-1.6-2.5-1.6-4.3q0-1.5 0.1-2.9 0.1-1.4 0.4-3 0.3-1.5 0.7-2.9 0.4-1.3 1.1-2.5 0.7-1.1 1.5-2 0.8-0.7 2-1.2 1.1-0.4 2.5-0.4 0.1 0 0.6 0.3 0.9 0.7 2.2 1.4 1.3 0.9 3.4 1.6 2.2 0.6 4.4 0.6 2.2 0 4.4-0.6 2.1-0.7 3.4-1.6 1.3-0.8 2.2-1.4 0.5-0.3 0.6-0.3 1.4 0 2.5 0.4 1.2 0.5 2 1.2 0.8 0.9 1.5 2 0.7 1.2 1.1 2.5 0.4 1.4 0.7 2.9 0.3 1.6 0.4 3 0.1 1.4 0.1 2.9c0 1.8-0.5 3.2-1.6 4.3z"/></svg>
